src/assets/filled/DirectLeft.svg

<svg width="24" height="24" viewBox="0 0 24 24"  xmlns="http://www.w3.org/2000/svg">
<path d="M21.2899 17.0198L19.5499 13.5398C19.0699 12.5698 19.0699 11.4398 19.5499 10.4698L21.2899 6.98983C22.7799 3.99983 19.5699 0.859829 16.6199 2.41983L15.0799 3.23983C14.8699 3.34983 14.6999 3.52983 14.5999 3.74983L8.89993 16.3898C8.66993 16.9098 8.87993 17.5198 9.37993 17.7798L16.6199 21.5898C19.5699 23.1498 22.7799 19.9998 21.2899 17.0198Z" />
<path d="M7.69002 15.6L11.42 7.31996C11.84 6.38996 10.84 5.44996 9.94002 5.92996L4.17002 8.95996C1.72002 10.25 1.72002 13.75 4.17002 15.04L6.21002 16.11C6.76002 16.4 7.43002 16.17 7.69002 15.6Z" />
</svg>

<?xml version="1.0" encoding="UTF-8"?>
<svg width="24" height="24" viewBox="0 0 24 24" xmlns="http://www.w3.org/2000/svg">
 <path d="m21.29 17.02-1.74-3.48c-0.48-0.97-0.48-2.1 0-3.07l1.74-3.48c1.49-2.99-1.72-6.13-4.67-4.57l-1.54 0.82c-0.21 0.11-0.38 0.29-0.48 0.51l-5.7 12.64c-0.23 0.52-0.02 1.13 0.48 1.39l7.24 3.81c2.95 1.56 6.16-1.59 4.67-4.57z"/>
 <path d="m7.69 15.6 3.73-8.28c0.42-0.93-0.58-1.87-1.48-1.39l-5.77 3.03c-2.45 1.29-2.45 4.79 0 6.08l2.04 1.07c0.55 0.29 1.22 0.06 1.48-0.51z"/>
</svg>
